X:1
T:Title
%%score [ ( 1 2 ) ( 3 4 ) ] { ( 5 6 ) | 7 }
L:1/8
Q:1/4=120
M:4/4
K:Bb
V:1 treble nm="Midi_74"
V:2 treble 
V:3 bass nm="Midi_74"
V:4 bass 
V:5 treble nm="Org."
V:6 treble 
V:7 bass 
V:1
 B8 | d4 B4 | F8 || B8 | c4 F4 | B4 =E4 | F8 || B8 | d4 B4 | G8 || e8 | f4 B4 | %12
"^William Henry Havergal\n(1793-1870)" d4 c4 | B8 |] %14
V:2
 B,8 | D4 B,4 | F8 || F8 | F4 F4 | G4 G,4 | C8 || B,8 | D4 B,4 | G,8 || G8 | F4 =E4 | F4 _E4 | %13
 D8 |] %14
V:3
 B,8 | D4 B,4 | F,8 || D8 | C4 C4 | D4 B,4 | A,8 || B,8 | D4 B,4 | G,8 || B,8 | B,4 B,4 | B,4 A,4 | %13
 B,8 |] %14
V:4
 B,,8 | D,4 B,,4 | F,,8 || B,8 | A,4 A,4 | G,4 G,4 | F,8 || B,,8 | D,4 B,,4 | G,,8 || E,8 | %11
 D,4 G,4 | F,4 F,4 | B,,8 |] %14
V:5
 B8 | d4 B4 | F8 || [DB]8 | c4 F4 | B4 =E4 | F8 || B8 | d4 B4 | G8 || e8 | f4 B4 | d4 [Ac]4 | B8 |] %14
V:6
 x8 | x8 | F8 || F8 | [CF]4 C4 | [B,G]4 B,4 | [A,C]8 || x8 | x8 | x8 || [GB]8 | [FB]4 =E4 | %12
 [FB]4 _E4 | D8 |] %14
V:7
 [B,,B,]8 | [D,D]4 [B,,B,]4 | [F,,F,]8 || B,8 | A,4 A,4 | G,4 G,4 | F,8 || [B,,B,]8 | %8
 [D,D]4 [B,,B,]4 | [G,,G,]8 || E,8 | D,4 G,4 | F,4 F,4 | B,,8 |] %14

